Catalina-light/actions/16/edit-delete-symbolic.svg

<?xml version="1.0" encoding="UTF-8" standalone="no"?>
<svg
   xmlns:dc="http://purl.org/dc/elements/1.1/"
   xmlns:cc="http://creativecommons.org/ns#"
   xmlns:rdf="http://www.w3.org/1999/02/22-rdf-syntax-ns#"
   xmlns:svg="http://www.w3.org/2000/svg"
   xmlns="http://www.w3.org/2000/svg"
   xmlns:sodipodi="http://sodipodi.sourceforge.net/DTD/sodipodi-0.dtd"
   xmlns:inkscape="http://www.inkscape.org/namespaces/inkscape"
   viewBox="0 0 16 16"
   id="svg3255"
   version="1.1"
   inkscape:version="0.91 r13725"
   sodipodi:docname="edit-delete-symbolic.svg">
  <metadata
     id="metadata3263">
    <rdf:RDF>
      <cc:Work
         rdf:about="">
        <dc:format>image/svg+xml</dc:format>
        <dc:type
           rdf:resource="http://purl.org/dc/dcmitype/StillImage" />
      </cc:Work>
    </rdf:RDF>
  </metadata>
  <sodipodi:namedview
     pagecolor="#ffffff"
     bordercolor="#666666"
     borderopacity="1"
     objecttolerance="10"
     gridtolerance="10"
     guidetolerance="10"
     inkscape:pageopacity="0"
     inkscape:pageshadow="2"
     inkscape:window-width="640"
     inkscape:window-height="480"
     id="namedview3261"
     showgrid="false"
     inkscape:zoom="39.8125"
     inkscape:cx="-0.94191521"
     inkscape:cy="8"
     inkscape:current-layer="svg3255" />
  <defs
     id="defs3051">
    <style
       type="text/css"
       id="current-color-scheme">
      .ColorScheme-Text {
        color:#bebebe;
      }
      </style>
  </defs>
  <path
     style="color:#bebebe;fill:currentColor;fill-opacity:1;stroke:none"
     class="ColorScheme-Text"
     d="M 2.0623572,5.8716225 2.8135346,6.4823992 2.1065322,7.8918351 C 1.7530423,8.5417468 2.3603171,9.174851 2.7472421,9.395246 3.1281445,9.612191 3.7193395,9.637983 4.2716769,9.630168 L 5.2658692,7.9388225 6.0170391,8.3616569 4.7135318,5.8481551 2.0623572,5.8716301 Z m 0.1104525,3.4501915 1.6127998,3.100773 c 0.3240374,0.43065 0.9352948,0.532447 1.5686322,0.516795 l 1.7011722,0 0,-2.936329 L 3.829807,9.979583 C 3.3290471,10.010853 2.6735922,9.901243 2.1728097,9.321823 Z M 12.31979,3.6074429 11.442299,3.9950349 10.600468,2.6682641 C 10.225648,2.0314474 9.3991035,2.2772295 9.0263164,2.5225542 8.659334,2.7640689 8.351024,3.2896608 8.089829,3.7961726 L 9.0293164,5.5210431 8.3097665,5.9997449 11.054203,6.0319199 12.31979,3.6074654 Z M 9.366516,2.0353248 5.9785491,1.9999998 c -0.51903,0.08613 -0.9009299,0.5931144 -1.1948173,1.1771836 L 3.9589869,4.725549 6.4268465,6.1491222 8.0103965,3.2246208 C 8.2268465,2.753614 8.636744,2.2102096 9.366516,2.0353398 Z M 9.513891,13.99997 9.613536,13.013369 11.13677,12.890429 c 0.716918,-0.03247 0.911078,-0.903876 0.885623,-1.362126 -0.02504,-0.451116 -0.317332,-0.986541 -0.61641,-1.469833 L 9.5008485,10.07737 9.4472986,9.190368 8.0897465,11.672693 9.513846,14 Z m 2.753077,-1.925795 1.672208,-3.066476 c 0.179257,-0.5141847 -0.06166,-1.1075839 -0.4101,-1.6582332 L 12.62759,5.8481326 10.234708,7.4041557 11.924886,10.263294 c 0.290924,0.42534 0.548902,1.061857 0.342082,1.810881 z"
     id="path3259"
     inkscape:connector-curvature="0" />
</svg>

<svg version="1.1" viewBox="0 0 16 16" xmlns="http://www.w3.org/2000/svg">
<defs>
<style id="current-color-scheme" type="text/css">.ColorScheme-Text {
        color:#363636;
      }</style>
</defs>
<path class="ColorScheme-Text" d="m2.0624 5.8716 0.75118 0.61078-0.707 1.4094c-0.35349 0.64991 0.25378 1.283 0.64071 1.5034 0.3809 0.21694 0.9721 0.24274 1.5244 0.23492l0.99419-1.6913 0.75117 0.42283-1.3035-2.5135-2.6512 0.023475zm0.11045 3.4502 1.6128 3.1008c0.32404 0.43065 0.93529 0.53245 1.5686 0.5168h1.7012v-2.9363l-3.2256-0.02347c-0.50076 0.03127-1.1562-0.07834-1.657-0.65776zm10.147-5.7144-0.87749 0.38759-0.84183-1.3268c-0.37482-0.63682-1.2014-0.39103-1.5742-0.14571-0.36698 0.24151-0.67529 0.76711-0.93649 1.2736l0.93949 1.7249-0.71955 0.4787 2.7444 0.032175 1.2656-2.4245zm-2.9533-1.5721-3.388-0.035325c-0.51903 0.08613-0.90093 0.59311-1.1948 1.1772l-0.82474 1.5484 2.4679 1.4236 1.5836-2.9245c0.21645-0.47101 0.62635-1.0144 1.3561-1.1893zm0.14738 11.965 0.099645-0.9866 1.5232-0.12294c0.71692-0.03247 0.91108-0.90388 0.88562-1.3621-0.02504-0.45112-0.31733-0.98654-0.61641-1.4698l-1.9051 0.0189-0.05355-0.887-1.3576 2.4823 1.4241 2.3273zm2.7531-1.9258 1.6722-3.0665c0.17926-0.51418-0.06166-1.1076-0.4101-1.6582l-0.90149-1.5013-2.3929 1.556 1.6902 2.8591c0.29092 0.42534 0.5489 1.0619 0.34208 1.8109z" color="#363636" fill="#363636"/>
</svg>
